X:166
T:Aith Rant
O:england
N:played by a fairy fiddler in Aiths Voe, 1790
M:6/8
K:G
D||\
BcB BcB|BcB AGA|BcB A2A|cBA AGA|BcB BcB|Bcd e2e|dcB A3 |cBA G3:|
g3  dcB|g2d dcB|g2B BAG|A3 - A3|g2g fge|ded dcB|cde dcB|cBA G3:|


